resources/svg/pencil-ruler-fill.svg

<svg fill="currentColor" viewBox="0 0 24 24" xmlns="http://www.w3.org/2000/svg"><path d="M5 18V20H9V18H5ZM3 7L7 2L11 7V22H3V7ZM21 8H19V10H21V12H18V14H21V16H19V18H21V21C21 21.5523 20.5523 22 20 22H14C13.4477 22 13 21.5523 13 21V5C13 4.44772 13.4477 4 14 4H20C20.5523 4 21 4.44772 21 5V8Z"/></svg>

<svg xmlns="http://www.w3.org/2000/svg" viewBox="0 0 24 24" fill="currentColor">
    <g>
        <path fill="none" d="M0 0h24v24H0z"/>
        <path d="M5 18v2h4v-2H5zM3 7l4-5 4 5v15H3V7zm18 1h-2v2h2v2h-3v2h3v2h-2v2h2v3a1 1 0 0 1-1 1h-6a1 1 0 0 1-1-1V5a1 1 0 0 1 1-1h6a1 1 0 0 1 1 1v3z"/>
    </g>
</svg>
